packages/foundations/assets/icons/functional/images/business & payment/shopping_basket_28.svg

<svg width="28" height="28" viewBox="0 0 28 28" fill="none" xmlns="http://www.w3.org/2000/svg">
<g clip-path="url(#clip0_184_111)">
<path fill-rule="evenodd" clip-rule="evenodd" d="M14.0138 2.61251C17.8798 2.61251 20.9938 5.75451 20.9938 9.64851H24.3308C24.587 9.64747 24.8402 9.70284 25.0726 9.8107C25.305 9.91856 25.5107 10.0763 25.6753 10.2726C25.8399 10.4689 25.9592 10.6991 26.0247 10.9468C26.0903 11.1944 26.1006 11.4535 26.0548 11.7055L23.8868 23.2475C23.6648 24.4435 22.6638 25.3885 21.4678 25.3885H6.72778C6.11482 25.3894 5.52084 25.1759 5.04861 24.7852C4.57638 24.3944 4.2556 23.8508 4.14178 23.2485L1.94478 11.7045C1.89934 11.4525 1.90985 11.1936 1.97558 10.9461C2.04131 10.6986 2.16064 10.4686 2.32512 10.2723C2.48961 10.0761 2.69523 9.91838 2.92742 9.8104C3.15962 9.70243 3.41271 9.64682 3.66878 9.64751H7.03378C7.03378 5.78151 10.1488 2.61251 14.0138 2.61251ZM24.3308 11.3725H3.66878L5.86678 22.9125C5.90522 23.1139 6.01199 23.2958 6.16905 23.4275C6.3261 23.5592 6.52381 23.6327 6.72878 23.6355H21.3288C21.5337 23.6327 21.7315 23.5592 21.8885 23.4275C22.0456 23.2958 22.1523 23.1139 22.1908 22.9125L24.3318 11.3725H24.3308ZM14.0138 4.36451C11.1218 4.36451 8.78578 6.72851 8.78578 9.64851H19.2418C19.2418 6.75651 16.9058 4.36451 14.0138 4.36451Z" fill="#1A1C1F"/>
</g>
<defs>
<clipPath id="clip0_184_111">
<rect width="28" height="28" fill="white"/>
</clipPath>
</defs>
</svg>

<svg xmlns="http://www.w3.org/2000/svg" width="28" height="28" fill="none"><g clip-path="url(#a)"><path fill="#1A1C1F" fill-rule="evenodd" d="M14.014 2.613c3.866 0 6.98 3.142 6.98 7.036h3.337a1.745 1.745 0 0 1 1.724 2.057l-2.168 11.542c-.222 1.195-1.223 2.14-2.42 2.14H6.728a2.63 2.63 0 0 1-2.585-2.14L1.945 11.705a1.747 1.747 0 0 1 1.724-2.056h3.365c0-3.866 3.115-7.035 6.98-7.035m10.317 8.76H3.669l2.198 11.54a.89.89 0 0 0 .862.723h14.6a.89.89 0 0 0 .862-.723zM14.014 4.365c-2.892 0-5.228 2.364-5.228 5.284h10.456c0-2.892-2.336-5.284-5.228-5.284" clip-rule="evenodd"/></g><defs><clipPath id="a"><path fill="#fff" d="M0 0h28v28H0z"/></clipPath></defs></svg>
